src/assets/icons/ico_specteam.svg

<?xml version="1.0" encoding="utf-8"?>
<!-- Generator: Adobe Illustrator 26.0.1, SVG Export Plug-In . SVG Version: 6.00 Build 0)  -->
<svg version="1.1" id="Layer_1" xmlns="http://www.w3.org/2000/svg" xmlns:xlink="http://www.w3.org/1999/xlink" x="0px" y="0px"
	 viewBox="0 0 64 64" style="enable-background:new 0 0 64 64;" xml:space="preserve">
<style type="text/css">
	.st0{fill:#43BBC4;}
</style>
<path class="st0" d="M27.8564,18.665l-0.6709,3.9106c-0.0581,0.3384,0.0786,0.6738,0.3564,0.876
	c0.2729,0.1987,0.6436,0.2241,0.9434,0.0679l3.5117-1.8462l3.5103,1.8457c0.1279,0.0679,0.2725,0.1035,0.418,0.1035
	c0.1904,0,0.3721-0.0586,0.5278-0.1714c0.2769-0.2026,0.4131-0.5376,0.355-0.8755l-0.6709-3.9106l2.8413-2.769
	c0.2456-0.2393,0.333-0.5908,0.2271-0.918v-0.0005c-0.106-0.3271-0.3833-0.5605-0.7231-0.6094l-3.9263-0.5708l-1.7559-3.5581
	c-0.3008-0.6108-1.3052-0.6108-1.606,0l-1.7568,3.5581l-3.9258,0.5703c-0.3398,0.0493-0.6172,0.2827-0.7231,0.6104
	c-0.106,0.3271-0.0186,0.6787,0.2266,0.9175L27.8564,18.665z M29.8413,14.749c0.1631-0.0234,0.3037-0.126,0.3765-0.2734
	l1.7793-3.6035l1.7788,3.6035c0.0728,0.1475,0.2134,0.25,0.3765,0.2734l3.9771,0.5781l-2.8784,2.8057
	c-0.1177,0.1147-0.1714,0.2803-0.1436,0.4424l0.6797,3.9609L32.23,20.666c-0.1465-0.0771-0.3193-0.0771-0.4658,0l-3.5576,1.8701
	l0.6797-3.9609c0.0278-0.1621-0.0259-0.3276-0.1436-0.4424l-2.8779-2.8057L29.8413,14.749z"/>
<path class="st0" d="M42.9932,24.5649l-0.4575,2.6636c-0.0493,0.2939,0.0693,0.585,0.3101,0.7598
	c0.2373,0.1729,0.5605,0.1958,0.8179,0.0586l2.3916-1.2568l2.3896,1.2563c0.1113,0.0586,0.2368,0.0898,0.3633,0.0898
	c0.1655,0,0.3237-0.0513,0.4565-0.1479c0.2407-0.1748,0.3594-0.4658,0.3096-0.7607l-0.457-2.6626l1.9351-1.8857
	c0.2129-0.207,0.2886-0.5122,0.1973-0.7954c-0.0005-0.0005-0.0005-0.001-0.0005-0.0015c-0.0923-0.2837-0.333-0.4863-0.6274-0.5288
	l-2.6738-0.3887l-1.1948-2.4209c-0.2607-0.5317-1.1318-0.5342-1.3945-0.0015l-1.1958,2.4224l-2.6733,0.3887
	c-0.2915,0.042-0.5381,0.2505-0.627,0.5283c-0.0913,0.2793-0.0146,0.5923,0.1958,0.7974L42.9932,24.5649z M44.5664,21.9165
	c0.1631-0.0234,0.3037-0.126,0.3765-0.2734l1.1123-2.2534l1.1123,2.2534c0.0728,0.1475,0.2134,0.25,0.3765,0.2734l2.4873,0.3613
	l-1.8003,1.7549c-0.1177,0.1147-0.1714,0.2803-0.1436,0.4424l0.4248,2.4771l-2.2246-1.1694c-0.1455-0.0771-0.3193-0.0771-0.4648,0
	l-2.2246,1.1694l0.4248-2.4771c0.0278-0.1621-0.0259-0.3276-0.1436-0.4424l-1.8003-1.7544L44.5664,21.9165z"/>
<path class="st0" d="M14.8765,24.5649l-0.4565,2.6616c-0.0503,0.2896,0.0713,0.5889,0.3091,0.7612
	c0.1333,0.0972,0.2915,0.1484,0.457,0.1484c0.1265,0,0.252-0.0312,0.3613-0.0894L17.939,26.79l2.3901,1.2563
	c0.2612,0.1387,0.5825,0.1157,0.8188-0.0581c0.2383-0.1729,0.3599-0.4722,0.3096-0.7607l-0.4565-2.6621l1.936-1.8872
	c0.2095-0.2056,0.2861-0.5181,0.1958-0.7935c-0.0898-0.2808-0.3364-0.4893-0.6279-0.5312l-2.6733-0.3887l-1.1958-2.4229
	c-0.2656-0.5361-1.1343-0.5327-1.3936,0.0005l-1.1963,2.4224l-2.6733,0.3887c-0.2944,0.0425-0.5352,0.2451-0.6274,0.5288
	c-0.0908,0.2793-0.0137,0.5918,0.1968,0.7969L14.8765,24.5649z M16.4497,21.9165c0.1631-0.0234,0.3037-0.126,0.3765-0.2734
	l1.1128-2.2534l1.1123,2.2534c0.0728,0.1475,0.2134,0.25,0.3765,0.2734l2.4873,0.3618l-1.8003,1.7544
	c-0.1177,0.1147-0.1714,0.2803-0.1436,0.4424l0.4248,2.4766l-2.2246-1.1689c-0.1455-0.0771-0.3193-0.0771-0.4648,0l-2.2251,1.1694
	l0.4248-2.4771c0.0278-0.1621-0.0259-0.3276-0.1436-0.4424l-1.7998-1.7549L16.4497,21.9165z"/>
<path class="st0" d="M9.293,54.2598h16.332c0.0052,0,0.0094-0.0027,0.0145-0.0029h12.7078
	c0.0051,0.0002,0.0093,0.0029,0.0145,0.0029h16.3447c0.4746,0,0.9277-0.2051,1.2427-0.563
	c0.3101-0.3525,0.4546-0.8198,0.3955-1.2817c-0.5458-4.2522-3.6649-7.6326-7.6757-8.6782c0.5323-0.272,1.0372-0.6052,1.475-1.043
	c1.3179-1.3179,1.9097-3.1411,1.6235-5.0024c-0.3774-2.4507-2.3521-4.4243-4.8022-4.7998c-1.8608-0.2817-3.6812,0.3071-4.998,1.6235
	s-1.9092,3.1387-1.625,4.999c0.2802,1.8339,1.4561,3.4005,3.0571,4.2317c-0.7136,0.1904-1.4014,0.4709-2.0624,0.8104
	c-1.7131-1.7375-3.9077-2.9916-6.3632-3.5628c0.7889-0.3544,1.5203-0.845,2.1507-1.4754c1.7671-1.7666,2.4922-4.3032,1.9409-6.7852
	c-0.5986-2.6919-2.7246-4.8169-5.416-5.4136c-2.4795-0.5483-5.0132,0.1758-6.7793,1.9404
	c-1.7656,1.7651-2.4917,4.2998-1.9429,6.7803c0.4852,2.1922,2.0635,4.0447,4.0909,4.959c-2.4521,0.575-4.6428,1.8312-6.3524,3.5696
	c-0.6615-0.3449-1.3518-0.6301-2.071-0.8227c1.601-0.8312,2.7769-2.3978,3.0571-4.2319c0.2842-1.8608-0.3086-3.6826-1.6255-4.9995
	c-1.3174-1.3164-3.1401-1.9072-4.998-1.623c-2.4507,0.3755-4.4253,2.3496-4.8018,4.7998c-0.2861,1.8613,0.3057,3.6846,1.6235,5.0024
	c0.4378,0.4378,0.9426,0.7711,1.4748,1.043c-4.0015,1.0455-7.1209,4.4254-7.6696,8.6772c-0.0591,0.4624,0.085,0.9297,0.395,1.2827
	C8.3652,54.0547,8.8184,54.2598,9.293,54.2598z M41.3306,39.3628c-0.2354-1.542,0.2544-3.0513,1.3438-4.1406
	c0.9097-0.9092,2.1113-1.4004,3.3809-1.4004c0.2505,0,0.5044,0.019,0.7588,0.0581c2.0229,0.3101,3.6538,1.9399,3.9653,3.9639
	c0.2373,1.5425-0.252,3.0527-1.3423,4.1431c-1.0903,1.0898-2.6011,1.5791-4.1431,1.3428
	C43.2695,43.0181,41.6396,41.3867,41.3306,39.3628z M46.0635,44.3945c4.6992,0,8.6929,3.5029,9.2891,8.1475
	c0.0229,0.1797-0.0317,0.355-0.1543,0.4941c-0.125,0.1421-0.3042,0.2236-0.4917,0.2236h-9.6121
	c-0.1137-3.0134-1.2372-5.7703-3.0568-7.9326C43.2936,44.7271,44.665,44.3945,46.0635,44.3945z M25.9038,35.8242
	c-0.4751-2.1455,0.1509-4.335,1.6733-5.8574c1.1865-1.186,2.7783-1.8271,4.438-1.8271c0.4697,0,0.9448,0.0513,1.4175,0.1562
	c2.2788,0.5049,4.1499,2.3755,4.6562,4.6538c0.4771,2.1465-0.1475,4.3374-1.6714,5.8613c-1.5244,1.5229-3.7173,2.1465-5.8604,1.6704
	C28.2783,39.9756,26.4082,38.1035,25.9038,35.8242z M32.0068,41.6421c6.5112,0,11.8394,5.1655,12.1025,11.6147H19.9048
	C20.168,46.8076,25.4956,41.6421,32.0068,41.6421z M13.2148,37.8438c0.311-2.0239,1.9414-3.6538,3.9648-3.9639
	c1.5425-0.2339,3.0503,0.2534,4.1396,1.3423c1.0898,1.0889,1.5796,2.5986,1.3442,4.1406c-0.3091,2.0239-1.939,3.6553-3.9629,3.9668
	c-1.5415,0.2344-3.0532-0.2524-4.1436-1.3428S12.9775,39.3862,13.2148,37.8438z M17.937,44.3945
	c1.4025,0,2.778,0.3364,4.0296,0.9434c-1.814,2.1606-2.9334,4.9136-3.0469,7.9218H9.293c-0.1875,0-0.3667-0.0815-0.4917-0.2236
	C8.6787,52.897,8.624,52.7212,8.6475,52.542C9.2466,47.897,13.2402,44.3945,17.937,44.3945z"/>
</svg>

<?xml version="1.0" encoding="UTF-8" standalone="no"?>
<!DOCTYPE svg PUBLIC "-//W3C//DTD SVG 1.1//EN" "http://www.w3.org/Graphics/SVG/1.1/DTD/svg11.dtd">
<svg width="100%" height="100%" viewBox="0 0 65 65" version="1.1" xmlns="http://www.w3.org/2000/svg" xmlns:xlink="http://www.w3.org/1999/xlink" xml:space="preserve" xmlns:serif="http://www.serif.com/" style="fill-rule:evenodd;clip-rule:evenodd;stroke-linejoin:round;stroke-miterlimit:2;">
    <g transform="matrix(1,0,0,1,-289,-79)">
        <g transform="matrix(0.0625,0,0,0.0833333,289.323,79.8764)">
            <rect id="ico_specteam" x="0" y="0" width="1024" height="768" style="fill:none;"/>
            <g id="ico_specteam1" serif:id="ico_specteam">
                <g id="ico_specteam.svg" transform="matrix(16,0,0,12,512,384)">
                    <g transform="matrix(1,0,0,1,-32,-32)">
                        <g>
                            <path d="M27.856,18.665L27.186,22.576C27.127,22.914 27.264,23.249 27.542,23.452C27.815,23.65 28.186,23.676 28.485,23.52L31.997,21.673L35.507,23.519C35.635,23.587 35.78,23.623 35.925,23.623C36.116,23.623 36.297,23.564 36.453,23.451C36.73,23.249 36.866,22.914 36.808,22.576L36.137,18.665L38.978,15.896C39.224,15.657 39.311,15.305 39.206,14.978L39.206,14.978C39.1,14.65 38.822,14.417 38.482,14.368L34.556,13.797L32.8,10.239C32.499,9.628 31.495,9.628 31.194,10.239L29.437,13.797L25.512,14.368C25.172,14.417 24.894,14.65 24.789,14.978C24.683,15.305 24.77,15.657 25.015,15.896L27.856,18.665ZM29.841,14.749C30.004,14.726 30.145,14.623 30.218,14.476L31.997,10.872L33.776,14.476C33.849,14.623 33.989,14.726 34.152,14.749L38.13,15.327L35.251,18.133C35.133,18.248 35.08,18.413 35.108,18.575L35.787,22.536L32.23,20.666C32.083,20.589 31.911,20.589 31.764,20.666L28.207,22.536L28.886,18.575C28.914,18.413 28.86,18.248 28.743,18.133L25.865,15.327L29.841,14.749Z" style="fill:rgb(26,91,87);fill-rule:nonzero;"/>
                            <path d="M42.993,24.565L42.536,27.229C42.486,27.522 42.605,27.814 42.846,27.988C43.083,28.161 43.406,28.184 43.664,28.047L46.055,26.79L48.445,28.046C48.556,28.105 48.682,28.136 48.808,28.136C48.974,28.136 49.132,28.085 49.265,27.988C49.505,27.813 49.624,27.522 49.574,27.228L49.117,24.565L51.052,22.679C51.265,22.472 51.341,22.167 51.25,21.884C51.249,21.883 51.249,21.883 51.249,21.882C51.157,21.599 50.916,21.396 50.622,21.354L47.948,20.965L46.753,18.544C46.492,18.012 45.621,18.01 45.359,18.542L44.163,20.965L41.49,21.354C41.198,21.396 40.951,21.604 40.863,21.882C40.771,22.161 40.848,22.474 41.058,22.679L42.993,24.565ZM44.566,21.917C44.73,21.893 44.87,21.79 44.943,21.643L46.055,19.39L47.167,21.643C47.24,21.791 47.381,21.893 47.544,21.917L50.031,22.278L48.231,24.033C48.113,24.147 48.06,24.313 48.087,24.475L48.512,26.952L46.288,25.783C46.142,25.706 45.968,25.706 45.823,25.783L43.598,26.952L44.023,24.475C44.051,24.313 43.997,24.147 43.879,24.033L42.079,22.278L44.566,21.917Z" style="fill:rgb(26,91,87);fill-rule:nonzero;"/>
                            <path d="M14.877,24.565L14.42,27.227C14.37,27.516 14.491,27.815 14.729,27.988C14.862,28.085 15.021,28.136 15.186,28.136C15.313,28.136 15.438,28.105 15.547,28.047L17.939,26.79L20.329,28.046C20.59,28.185 20.912,28.162 21.148,27.988C21.386,27.815 21.508,27.516 21.458,27.228L21.001,24.565L22.937,22.678C23.147,22.473 23.223,22.16 23.133,21.885C23.043,21.604 22.796,21.395 22.505,21.354L19.832,20.965L18.636,18.542C18.37,18.006 17.502,18.009 17.242,18.542L16.046,20.965L13.373,21.354C13.078,21.396 12.837,21.599 12.745,21.882C12.654,22.162 12.732,22.474 12.942,22.679L14.877,24.565ZM16.45,21.917C16.613,21.893 16.753,21.79 16.826,21.643L17.939,19.39L19.051,21.643C19.124,21.791 19.265,21.893 19.428,21.917L21.915,22.278L20.115,24.033C19.997,24.147 19.943,24.313 19.971,24.475L20.396,26.952L18.171,25.783C18.026,25.706 17.852,25.706 17.707,25.783L15.482,26.952L15.906,24.475C15.934,24.313 15.88,24.147 15.763,24.033L13.963,22.278L16.45,21.917Z" style="fill:rgb(26,91,87);fill-rule:nonzero;"/>
                            <path d="M9.293,54.26L25.625,54.26C25.63,54.26 25.634,54.257 25.64,54.257L38.347,54.257C38.352,54.257 38.357,54.26 38.362,54.26L54.707,54.26C55.181,54.26 55.634,54.055 55.949,53.697C56.259,53.344 56.404,52.877 56.345,52.415C55.799,48.163 52.68,44.783 48.669,43.737C49.201,43.465 49.706,43.132 50.144,42.694C51.462,41.376 52.054,39.553 51.768,37.691C51.39,35.241 49.415,33.267 46.965,32.892C45.105,32.61 43.284,33.199 41.967,34.515C40.651,35.832 40.058,37.654 40.342,39.514C40.623,41.348 41.798,42.915 43.399,43.746C42.686,43.936 41.998,44.217 41.337,44.556C39.624,42.819 37.429,41.565 34.974,40.993C35.763,40.639 36.494,40.148 37.125,39.518C38.892,37.751 39.617,35.215 39.065,32.733C38.467,30.041 36.341,27.916 33.649,27.319C31.17,26.771 28.636,27.495 26.87,29.26C25.105,31.025 24.378,33.559 24.927,36.04C25.412,38.232 26.991,40.085 29.018,40.999C26.566,41.574 24.375,42.83 22.666,44.569C22.004,44.224 21.314,43.939 20.595,43.746C22.196,42.915 23.372,41.348 23.652,39.514C23.936,37.653 23.343,35.831 22.026,34.515C20.709,33.198 18.886,32.607 17.028,32.892C14.578,33.267 12.603,35.241 12.227,37.691C11.94,39.553 12.532,41.376 13.85,42.694C14.288,43.132 14.793,43.465 15.325,43.737C11.323,44.782 8.204,48.162 7.655,52.414C7.596,52.876 7.74,53.344 8.05,53.697C8.365,54.055 8.818,54.26 9.293,54.26ZM41.331,39.363C41.095,37.821 41.585,36.312 42.674,35.222C43.584,34.313 44.786,33.822 46.055,33.822C46.306,33.822 46.56,33.841 46.814,33.88C48.837,34.19 50.468,35.82 50.779,37.844C51.017,39.386 50.527,40.897 49.437,41.987C48.347,43.077 46.836,43.566 45.294,43.33C43.27,43.018 41.64,41.387 41.331,39.363ZM46.064,44.395C50.763,44.395 54.756,47.897 55.353,52.542C55.375,52.722 55.321,52.897 55.198,53.036C55.073,53.178 54.894,53.26 54.707,53.26L45.094,53.26C44.981,50.246 43.857,47.489 42.038,45.327C43.294,44.727 44.665,44.395 46.064,44.395ZM25.904,35.824C25.429,33.679 26.055,31.489 27.577,29.967C28.764,28.781 30.355,28.14 32.015,28.14C32.485,28.14 32.96,28.191 33.433,28.296C35.711,28.801 37.583,30.671 38.089,32.95C38.566,35.096 37.941,37.287 36.417,38.811C34.893,40.334 32.7,40.957 30.557,40.481C28.278,39.976 26.408,38.103 25.904,35.824ZM32.007,41.642C38.518,41.642 43.846,46.808 44.109,53.257L19.905,53.257C20.168,46.808 25.496,41.642 32.007,41.642ZM13.215,37.844C13.526,35.82 15.156,34.19 17.18,33.88C18.722,33.646 20.23,34.133 21.319,35.222C22.409,36.311 22.899,37.821 22.663,39.363C22.354,41.387 20.724,43.018 18.701,43.33C17.159,43.564 15.647,43.077 14.557,41.987C13.467,40.896 12.977,39.386 13.215,37.844ZM17.937,44.395C19.34,44.395 20.715,44.731 21.967,45.338C20.153,47.499 19.033,50.252 18.92,53.26L9.293,53.26C9.105,53.26 8.926,53.178 8.801,53.036C8.679,52.897 8.624,52.721 8.648,52.542C9.247,47.897 13.24,44.395 17.937,44.395Z" style="fill:rgb(26,91,87);fill-rule:nonzero;"/>
                        </g>
                    </g>
                </g>
            </g>
        </g>
    </g>
</svg>
